X:9768
T:Log Cabin
Z: id:dc-reel-180
M:C
L:1/8
K:D Major
DB,|A,DD2 FGAB|=cdDE EDA^c|dcdA BdAG|FADB, =C2B,C|!
A,DD2 FGAB|=cdDE EDA^c|dcdA BAGF|EDCE D2:|!
Ac|d2fd Adfa|g2fg egfe|defd AddB|=cAGE =CDEC|!
D2fd Adfd|cdef g2ag|faec dBAG|FAEA D2:|!
